!!!OTL: 366. Plumpsackverstecken oder "Der Fuchs geht 'rum!".
!!!ARE: Europa, Mitteleuropa, Deutschland, Kassel
!!!SCT: K2366
!!!TXL: @@DE
!!!YEM: Copyright 1995, estate of Helmut Schaffrath.
**kern	**text
*clefG2	*
*M2/4	*
*k[b-]	*
*F:	*
{8dd	Der
=1	=1
8cc	Fuchs
8b-	geht
8a	rum,
8dd	der
=2	=2
8cc	Fuchs
8b-	geht
8a}	rum,
{8f	er
=3	=3
8cc	wird
8cc	euch
8dd	ſchon
8dd	be-
=4	=4
4cc	-lau-
8a}	-ſchen;
{8f	er
=5	=5
8cc	ſrißt
8cc	die
8dd	grü-
8dd	-nen
=6	=6
8cc	Blät-
8cc	-ter
8a}	ab,
{8f	die
=7	=7
8cc	gel-
8cc	-ben
8dd	läßt
8dd	er
=8	=8
4cc	fau-
8a	-len,
8dd	ja
=9	=9
4cc	fau-
8a}	len.
==	==
!!!AGN: Kinder - Lied, Tanz -, Lauf - Spiel
!!!ONB: ESAC (Essen Associative Code) Database: KINDER
!!!AMT: simple duple
!!!AIN: vox
!!!EED: Helmut Schaffrath
!!!EEV: 1.0
!!Aus Kassel: Lewalter 2, 28.
!!!GTL: Zweites Buch. Kinderspiel: 3. Lauf-, Sprung- und Haschenspiele.
!!!URL-scan: https://archive.org/details/DeutschesKinderliedUndKinderspiel/page/558/mode/1up
!!!ENC: Anna Maria Matuszewska
!!!EEV: 2024/05/09
*-	*-
